X:555
%%etbk:tnset id:290,pos:1,rep:3x,ant:
%%etbk:pldat 2016-08-18T18:54,2016-08-17T16:16,2016-08-16T16:18,2016-08-15T19:24,2016-08-10T16:34,2016-08-09T15:37,2016-06-04T15:35,2016-06-02T18:29,2016-06-01T16:45,2016-05-31T17:00,2016-05-30T18:08,2016-05-29T11:48,2016-05-15T14:55,2016-05-13T16:38,2016-05-11T16:38,2016-03-02T16:36,2016-03-01T17:12,2016-02-29T19:01,2016-02-27T13:56,2016-02-26T17:06,2016-02-22T18:32,2016-02-17T18:11,2014-04-24T18:16,2014-04-16T08:48,2014-04-09T15:47,2014-04-06T11:33,2014-04-01T16:22,2014-03-06T18:53,2014-03-04T18:50,2014-03-02T15:22,2014-02-26T18:13,2014-02-23T09:50,2014-02-18T16:55,2014-01-30T18:41,2014-01-28T17:20,2014-01-27T18:14,2014-01-19T14:49,2014-01-18T16:30,2014-01-17T17:24,2014-01-15T17:14,2014-01-13T19:04,2014-01-12T14:46,2014-01-08T17:12,2014-01-03T15:48,2014-01-02T11:18,2013-12-29T12:57,2013-12-28T14:29,2013-12-27T16:33,2013-12-26T14:32,2013-12-22T17:14,2013-12-22T15:40
T: Ride on
R: song
M: 4/4
L: 1/4
K: Bmin
|:"bm"zB,/B,/B,>A, | B,/C/D3 | "G"z2  z/B,/B,/C/|D4 |
"A"z C/C/C>C |  "F#"D/C/C3 | "bm"B,2 B,A, |B,4 :|
|:"bm"B,4, | D4 | "G"z2  z D|B,4 |
"A"z C/C/C>C |  "F#"D/C/C -C/B,/C/D/ | "bm"C>B,B,2 | -B,4 :|


